X: 1070
T: Sourgrass And Granite (A31)
N: page A31
N: heptatonic
N: matches 435
M: 3/4
L: 1/8
R: waltz
K: Dmaj
FE|:"D"DA, DF Ad|"A"c3d eg|"D"f2 d2 A2|\
"G"B3G D2| "G"B2Bc d2|"D"F3G A2|1
 "Em"Bc d2 F2|"A"E3G FE:|2 "Em"Bc dF "A7"E2 |\
"D"D3c de|: "Bm"fB Bc df|"A"eA AB c2|
"G"d2 c2 B2|"D"A4 FD| "G"B2 BA FA|\
"D"D3F Ad|1 "E9"f2 fe df|"A"e3c "D"de:|2 "E9"f2 fe "A7"dc|"D"d6||
